X:1
T:Right blest are they
T:Beati quorum. Psal.32.
T:William Byrd (c.1540-1623)
T:Right blest are they Beati quorum. Psal.32.
T:© Choral Public Domain Library 2010
T:© Choral Public Domain Library 2010
T:© Choral Public Domain Library 2010
T:© Choral Public Domain Library 2010
C:William Byrd (c.1540-1623)
Z:© Choral Public Domain Library 2010
%%score [ 1 2 3 ]
L:1/8
M:4/4
K:F
V:1 treble nm="Alto" snm="S."
V:2 treble-8 transpose=-12 nm="Tenor" snm="T."
V:3 treble-8 transpose=-12 nm="Tenor" snm="T."
V:1
 [De]2 |[M:4/2] z16 | z8 D8 | F4 B4 A8 | F4 A8 G4 | A8 z4 F4 | B8 A4 c4- | c2 B2 A8 G4 | %8
w: ||Right|blest are they|whose wick- ed|sins, by|God re- mit-|* * * ted|
 A4 D4 A4 F4 | E8 z4 D4- | D4 d8 d4 | c4 A4 c6 c2 | B8 A4 A4- | A4 B4 A4 F4 | G4 A4 G4 G4 | %15
w: be, re- mit- ted|be, and|_ whose de-|faults are co- ver-|ed, and whose|_ de- faults are|co- ver- ed, through|
 A4 F4 E6 E2 | D4 B8 A4- | A2 G2 G8 ^F4 | G8 z4 G4 | E8 ^F3 G A4 | G8 z8 | z16 | z4 d4 =B8 | %23
w: his great cle- men-|cy, through his|_ great cle- men-|cy. The|man is _ _|blest,||the man|
 c3 d e4 d8 | z4 d4 G8 | A8 =B8 | z8 z4 d4 | G8 A4 c4- | c2 =BA B4 c8 | z8 c8 | =B4 A4 c4 B4 | %31
w: is _ _ blest,|to whom|our Lord,|to|whom our Lord,|_ our _ _ Lord|hath|not im- pu- ted|
 A8 z8 | c8 =B4 A4 | c4 =B4 A4 E4- | E4 A8 ^G4 | A16 | z8 z4 F4 | D3 E F3 G A3 =B ^c4 | d16 | %39
w: sin,|hath not im-|pu- ted sin, im-|* pu- ted|sin,|nor|in his _ _ _ _ _|sprit,|
 z4 d4 B4 B4 | A8 z8 | z4 A4 F4 F4 | E8 z4 D4 | G4 A4 B4 G3 A | B2 G2 ^F4 G8 | A4 A8 B4 | A8 z8 | %47
w: de- ceit is|found,|de- ceit is|found, nor|takes de- light there- *|* * * in,|de- light there-|in,|
 D4 A8 =B4 | c4 A3 =B c2 A2 ^G4 | A8 z8 | z4 E4 A4 =B4 | c4 z2 A2 =B4 ^c4 | d4 A3 =B c2 A2 c4- | %53
w: nor takes de-|light, there- * * * *|in,|nor takes de-|light, nor takes de-|light there- * * * *|
 c2 =B2 A4 ^G4 z2 E2 | F3 G A8 G2 F2 | E2 D2 E4 | !fermata!^F16 |] %57
w: * * * in, nor|takes de- light there- *||in.|
V:2
 [Db]2 |[M:4/2] A8 c4 f4 | e8 f4 d4- | d4 G4 d4 A4 | d4 f4 d8 | z4 c4 f8 | d8 f4 f4 | c8 z4 e4 | %8
w: |Right blest are|they whose wick-|* ed sins, whose|wick- ed sins,|by God|re- mit- ted|be, by|
 f6 e2 d2 c2 d4 | A4 A4 B6 A2 | G4 B8 f4- | f4 f4 e4 c4 | g6 g2 f8 | d8 f6 f2 | e4 f8 e4- | %15
w: God re- mit- * ted|be, re- mit- ted|be, and whose|_ de- faults are|co- ver- ed,|are co- ver-|ed, through his|
 e2 d2 d8 ^c4 | d8 z4 c4 | d4 B4 A6 A2 | G16 | z8 z4 d4 | =B8 c3 d e4 | d4 c4 =B8 | A8 z4 g4 | %23
w: _ great cle- men-|cy, through|his great cle- men-|cy.|The|man is _ _|blest, is _|blest, the|
 e8 ^f3 g a4 | g8 e4 g4- | g4 ^f4 g4 g4 | c8 d8 | e8 f8 | e4 d4 f4 e4 | d4 d4 A6 A2 | D8 z8 | %31
w: man is _ _|blest, the man|_ is blest, to|whom our|Lord hath|not im- pu- ted|sin, im- pu- ted|sin,|
 f8 e4 d4 | f4 e4 d8 | z8 c8 | =B4 A4 c4 B4 | A8 f4 d3 e | f3 g e4 d8 | z16 | z4 B4 G3 A B3 c | %39
w: hath not im-|pu- ted sin,|hath|not im- pu- ted|sin, nor in his|_ _ _ sprit,||nor in his _ _|
 d3 e ^f4 g4 g4 | f4 f4 d8 | f4 e6 d2 d4- | d4 ^c4 d8- | d8 z4 d4 | g4 a4 b4 d3 e | %45
w: _ _ _ sprit de-|ceit is found,|de- ceit is _|_ _ found,|_ nor|takes de- light there- *|
 f2 d2 ^c4 d4 z2 G2 | d4 e4 f4 d3 e | f2 d2 ^c4 d4 z2 e2 | c4 d4 e4 =B4 | A4 d3 e f2 c2 d4 | %50
w: * * * in, nor|takes de- light there- *|* * * in, nor|takes de- light there-|in, there- * * * *|
 e8 z4 =B4 | e4 ^f4 g4 e4 | f8 e8 | z4 A4 =B4 ^c4 | d4 A3 =B c2 A2 d4- | d4 ^c4 | !fermata!d16 |] %57
w: in, nor|takes de- light there-|* in,|nor takes de-|light there- * * * *||in.|
V:3
 [Df]2 |[M:4/2] z16 | z16 | z16 | D8 F4 B4 | A8 F4 B4- | B4 G4 F8 | z4 F4 c8 | A4 f6 e2 d4- | %9
w: ||||Right blest are|they whose wick-|* ed sins,|by God|re- mit- * *|
 d4 ^c4 d8 | z4 G4 d4 B4 | A16 | z8 z4 D4- | D4 d8 d4 | c4 A4 c6 c2 | F8 z4 A4 | B4 G4 F8- | %17
w: * ted be,|re- mit- ted|be,|and|_ whose de-|faults are co- ver-|ed, through|his great cle-|
 F4 G4 D8 | z4 d4 =B8 | c3 d e4 d8 | z4 G4 E8 | ^F3 G A4 G4 G4- | G4 ^F4 G4 E4 | A8 z4 d4 | %24
w: * men- cy.|The man|is _ _ blest,|the man|is _ _ _ blest,|_ is blest, is|blest, the|
 =B8 c3 d e4 | d4 d4 G8 | A4 c6 =BA B4 | c4 c4 F8 | G8 A8 | z4 f8 e4 | d4 f4 e4 d4- | %31
w: man is _ _|blest, to whom|our Lord our _ _|Lord, to whom|our Lord|hath not|im- pu- ted sin,|
 d4 A4 c4 =B4 | A8 z4 F4 | E4 D4 F3 G A4 | G4 F4 E8 | z4 F4 D3 E F3 G | A3 =B ^c4 d4 d4 | %37
w: _ im- pu- ted|sin, hath|not im- pu- * *|* ted sin,|nor in his _ _|_ _ _ sprit, de-|
 B4 B4 A4 A4 | ^F4 G3 A B2 c2 d4 | D8 z8 | z4 d4 B4 B4 | A8 z4 D4 | G4 A4 B4 G3 A | B2 G2 ^F4 G8 | %44
w: ceit is found, nor|in his _ _ _ _|sprit|de- ceit is|found, nor|takes de- light there- *|* * * in,|
 z8 z4 G4 | d4 e4 f4 d3 e | f2 d2 ^c4 d8 | z4 A4 F4 G4 | A4 F4 E8 | z4 D4 A4 =B4 | %50
w: nor|takes de- light there- *|* * * in,|nor takes de-|light there- in,|nor takes de-|
 c4 A3 =B c2 A2 ^G4 | A8 G4 A4 | D3 E F2 D2 A8 | E4 F4 E8 | D4 F8 G4 | A4 A4 | !fermata!D16 |] %57
w: light there- * * * *|in, de- light|there- * * * in,|there- * in,|nor takes de-|light there-|in.|

